flaticon/constructions/hammer-1.svg

<svg xmlns="http://www.w3.org/2000/svg" width="32" height="32" viewBox="0 0 24 24">
    <path d="M 8.398438 0 L 0.398438 0 C 0.160156 0 0 0.160156 0 0.398438 L 0 23.601562 C 0 23.839844 0.160156 24 0.398438 24 L 8.398438 24 C 8.640625 24 8.800781 23.839844 8.800781 23.601562 L 8.800781 0.398438 C 8.800781 0.160156 8.640625 0 8.398438 0 Z M 8 23.199219 L 6.800781 23.199219 L 6.800781 18.800781 C 6.800781 18.558594 6.640625 18.398438 6.398438 18.398438 C 6.160156 18.398438 6 18.558594 6 18.800781 L 6 23.199219 L 4.800781 23.199219 L 4.800781 21.199219 C 4.800781 20.960938 4.640625 20.800781 4.398438 20.800781 C 4.160156 20.800781 4 20.960938 4 21.199219 L 4 23.199219 L 2.800781 23.199219 L 2.800781 20.398438 C 2.800781 20.160156 2.640625 20 2.398438 20 C 2.160156 20 2 20.160156 2 20.398438 L 2 23.199219 L 0.800781 23.199219 L 0.800781 0.800781 L 2 0.800781 L 2 5.199219 C 2 5.441406 2.160156 5.601562 2.398438 5.601562 C 2.640625 5.601562 2.800781 5.441406 2.800781 5.199219 L 2.800781 0.800781 L 4 0.800781 L 4 2.398438 C 4 2.640625 4.199219 2.800781 4.398438 2.800781 C 4.640625 2.800781 4.800781 2.640625 4.800781 2.398438 L 4.800781 0.800781 L 6 0.800781 L 6 5.199219 C 6 5.441406 6.160156 5.601562 6.398438 5.601562 C 6.640625 5.601562 6.800781 5.441406 6.800781 5.199219 L 6.800781 0.800781 L 8 0.800781 Z M 8 23.199219"/>
    <path d="M6.398438 13.601562C6.160156 13.601562 6 13.761719 6 14L6 17.199219C6 17.441406 6.160156 17.601562 6.398438 17.601562 6.640625 17.601562 6.800781 17.441406 6.800781 17.199219L6.800781 14C6.800781 13.761719 6.640625 13.601562 6.398438 13.601562zM4.398438 16C4.160156 16 4 16.160156 4 16.398438L4 19.199219C4 19.441406 4.160156 19.601562 4.398438 19.601562 4.640625 19.601562 4.800781 19.441406 4.800781 19.199219L4.800781 16.398438C4.800781 16.160156 4.640625 16 4.398438 16zM4.398438 7.601562C3.960938 7.601562 3.601562 7.960938 3.601562 8.398438 3.601562 8.839844 3.960938 9.199219 4.398438 9.199219 4.839844 9.199219 5.199219 8.839844 5.199219 8.398438 5.199219 7.960938 4.839844 7.601562 4.398438 7.601562zM4.398438 7.601562"/>
    <path d="M4.800781 6.039062L4.800781 4.800781C4.800781 4.558594 4.640625 4.398438 4.398438 4.398438 4.160156 4.398438 4 4.558594 4 4.800781L4 6.398438C4 6.640625 4.160156 6.800781 4.398438 6.800781 5.28125 6.800781 6 7.519531 6 8.398438L6 12C6 12.238281 6.160156 12.398438 6.398438 12.398438 6.640625 12.398438 6.800781 12.238281 6.800781 12L6.800781 8.398438C6.800781 7.199219 5.921875 6.238281 4.800781 6.039062zM4.398438 10C3.519531 10 2.800781 9.28125 2.800781 8.398438L2.800781 7.199219C2.800781 6.960938 2.640625 6.800781 2.398438 6.800781 2.160156 6.800781 2 6.960938 2 7.199219L2 8.398438C2 9.601562 2.878906 10.558594 4 10.761719L4 14.398438C4 14.640625 4.160156 14.800781 4.398438 14.800781 4.640625 14.800781 4.800781 14.640625 4.800781 14.398438L4.800781 10.398438C4.800781 10.160156 4.640625 10 4.398438 10zM2.398438 11.199219C2.160156 11.199219 2 11.359375 2 11.601562L2 15.601562C2 15.839844 2.160156 16 2.398438 16 2.640625 16 2.800781 15.839844 2.800781 15.601562L2.800781 11.601562C2.800781 11.359375 2.640625 11.199219 2.398438 11.199219zM2.398438 17.199219C2.160156 17.199219 2 17.359375 2 17.601562L2 18.398438C2 18.640625 2.160156 18.800781 2.398438 18.800781 2.640625 18.800781 2.800781 18.640625 2.800781 18.398438L2.800781 17.601562C2.800781 17.359375 2.640625 17.199219 2.398438 17.199219zM22.800781 1.601562L20.800781 1.601562C20.601562 1.601562 20.359375 1.679688 20.199219 1.839844 20.078125 2 20 2.199219 20 2.398438 19.601562 2.398438 19.519531 2.359375 19.28125 2.121094 19.160156 2 19.039062 1.878906 18.878906 1.761719 18.398438 1.398438 17.800781 1.199219 17.199219 1.199219L14.800781 1.199219C12.878906 1.199219 10.800781 2.398438 9.558594 4.199219L9.320312 4.558594C9.199219 4.71875 9.199219 4.921875 9.320312 5.039062 9.398438 5.160156 9.601562 5.199219 9.761719 5.160156 9.761719 5.160156 12.121094 4.320312 13.320312 5.160156 13.761719 5.480469 14 6 14 6.800781L14 22.398438C14 23.28125 14.71875 24 15.601562 24L16.398438 24C17.28125 24 18 23.28125 18 22.398438L18 7.082031C18.316406 6.988281 18.617188 6.835938 18.878906 6.640625 19.039062 6.480469 19.160156 6.359375 19.28125 6.28125 19.519531 6.039062 19.558594 6 19.960938 6 20 6 20 6 20 6 20 6.199219 20.082031 6.398438 20.199219 6.558594 20.359375 6.71875 20.558594 6.800781 20.800781 6.800781L22.800781 6.800781C23.480469 6.800781 24 6.28125 24 5.601562L24 2.800781C24 2.121094 23.480469 1.601562 22.800781 1.601562zM17.199219 22.398438C17.199219 22.839844 16.839844 23.199219 16.398438 23.199219L15.601562 23.199219C15.160156 23.199219 14.800781 22.839844 14.800781 22.398438L14.800781 22 15.601562 22C15.800781 22 16 21.839844 16 21.601562 16 21.359375 15.839844 21.199219 15.601562 21.199219L14.800781 21.199219 14.800781 20.398438 15.601562 20.398438C15.800781 20.398438 16 20.238281 16 20 16 19.761719 15.839844 19.601562 15.601562 19.601562L14.800781 19.601562 14.800781 12 17.199219 12zM17.199219 11.199219L14.800781 11.199219 14.800781 7.199219 17.199219 7.199219zM23.199219 5.601562C23.199219 5.839844 23.039062 6 22.800781 6L20.800781 6C20.800781 5.800781 20.71875 5.601562 20.601562 5.519531 20.441406 5.320312 20.199219 5.238281 19.960938 5.238281 19.28125 5.238281 19.039062 5.398438 18.71875 5.71875 18.601562 5.800781 18.519531 5.878906 18.359375 6 18.039062 6.238281 17.601562 6.398438 17.160156 6.398438L14.761719 6.398438C14.679688 5.558594 14.359375 4.921875 13.761719 4.480469 12.839844 3.878906 11.519531 3.960938 10.601562 4.121094 11.71875 2.800781 13.320312 2 14.800781 2L17.199219 2C17.640625 2 18.078125 2.121094 18.398438 2.398438 18.558594 2.519531 18.640625 2.601562 18.761719 2.71875 19.078125 3 19.320312 3.199219 20 3.199219 20.199219 3.199219 20.441406 3.121094 20.601562 2.921875 20.71875 2.800781 20.800781 2.601562 20.800781 2.398438L22.800781 2.398438C23.039062 2.398438 23.199219 2.558594 23.199219 2.800781zM23.199219 5.601562"/>
</svg>

<svg xmlns="http://www.w3.org/2000/svg" width="32" height="32" viewBox="0 0 24 24">
    <path d="M8.398 0h-8C.16 0 0 .16 0 .398v23.204c0 .238.16.398.398.398h8c.243 0 .403-.16.403-.398V.398C8.8.16 8.64 0 8.398 0zM8 23.2H6.8v-4.4c0-.241-.16-.402-.402-.402-.238 0-.398.16-.398.403v4.398H4.8v-2c0-.238-.16-.398-.402-.398-.238 0-.398.16-.398.398v2H2.8v-2.8c0-.239-.16-.399-.402-.399-.238 0-.398.16-.398.398V23.2H.8V.801H2v4.398c0 .242.16.403.398.403.243 0 .403-.16.403-.403V.801H4v1.597a.4.4 0 0 0 .398.403c.243 0 .403-.16.403-.403V.801H6v4.398c0 .242.16.403.398.403.243 0 .403-.16.403-.403V.801H8zm0 0"/>
    <path d="M6.398 13.602c-.238 0-.398.16-.398.398v3.2c0 .241.16.402.398.402.243 0 .403-.16.403-.403V14c0-.238-.16-.398-.403-.398zm0 0M4.398 16c-.238 0-.398.16-.398.398V19.2c0 .242.16.403.398.403.243 0 .403-.16.403-.403v-2.8c0-.239-.16-.399-.403-.399zm0 0M4.398 7.602a.8.8 0 0 0-.796.796c0 .442.359.801.796.801.442 0 .801-.36.801-.8a.801.801 0 0 0-.8-.797zm0 0"/>
    <path d="M4.8 6.04V4.8c0-.241-.16-.402-.402-.402-.238 0-.398.16-.398.403v1.597c0 .243.16.403.398.403C5.281 6.8 6 7.52 6 8.398V12c0 .238.16.398.398.398.243 0 .403-.16.403-.398V8.398c0-1.199-.88-2.16-2-2.359zm0 0M4.398 10a1.603 1.603 0 0 1-1.597-1.602V7.2c0-.238-.16-.398-.403-.398-.238 0-.398.16-.398.398v1.2c0 1.203.879 2.16 2 2.363v3.636c0 .243.16.403.398.403.243 0 .403-.16.403-.403v-4c0-.238-.16-.398-.403-.398zm0 0M2.398 11.2c-.238 0-.398.16-.398.402v4c0 .238.16.398.398.398.243 0 .403-.16.403-.398v-4c0-.243-.16-.403-.403-.403zm0 0M2.398 17.2c-.238 0-.398.16-.398.402v.796c0 .243.16.403.398.403.243 0 .403-.16.403-.403v-.796c0-.243-.16-.403-.403-.403zm0 0M22.8 1.602h-2c-.198 0-.44.078-.6.238-.122.16-.2.36-.2.558-.398 0-.48-.039-.719-.277-.12-.121-.242-.242-.402-.36a2.803 2.803 0 0 0-1.68-.562h-2.398c-1.922 0-4 1.2-5.242 3l-.239.36c-.12.16-.12.363 0 .48.078.121.282.16.442.121 0 0 2.36-.84 3.558 0 .442.32.68.84.68 1.64v15.598c0 .883.719 1.602 1.602 1.602h.796c.883 0 1.602-.719 1.602-1.602V7.082c.316-.094.617-.246.879-.441.16-.16.281-.282.402-.36.239-.242.278-.281.68-.281H20c0 .2.082.398.2.559.16.16.359.242.6.242h2c.68 0 1.2-.52 1.2-1.2v-2.8c0-.68-.52-1.2-1.2-1.2zm-5.6 20.796c0 .442-.36.801-.802.801h-.796c-.442 0-.801-.36-.801-.8V22h.8a.4.4 0 0 0 .399-.398c0-.243-.16-.403-.398-.403H14.8v-.8h.8A.4.4 0 0 0 16 20c0-.238-.16-.398-.398-.398H14.8V12h2.398zm0-11.199h-2.4v-4h2.4zm6-5.597c0 .238-.16.398-.4.398h-2c0-.2-.081-.398-.198-.48-.16-.2-.403-.282-.641-.282-.68 0-.922.16-1.242.48-.117.083-.2.16-.36.282-.32.238-.757.398-1.199.398h-2.398c-.082-.84-.403-1.476-1-1.918-.922-.601-2.242-.52-3.16-.359C11.719 2.801 13.32 2 14.8 2h2.398c.442 0 .88.121 1.2.398.16.122.242.204.363.32.316.282.558.481 1.238.481.2 0 .441-.078.602-.277.117-.121.199-.32.199-.524h2c.238 0 .398.16.398.403zm0 0"/>
</svg>
